public/images/hashed/ef30e5a70b655590a8253ef02e49ed1d.svg

<?xml version="1.0" encoding="UTF-8"?>
<svg width="80px" height="80px" viewBox="0 0 80 80" version="1.1" xmlns="http://www.w3.org/2000/svg" xmlns:xlink="http://www.w3.org/1999/xlink">
    <!-- Generator: Sketch 64 (93537) - https://sketch.com -->
    <title>Icon-Architecture/64/Arch_Amazon-GuardDuty_64</title>
    <desc>Created with Sketch.</desc>
    <defs>
        <linearGradient x1="0%" y1="100%" x2="100%" y2="0%" id="linearGradient-1">
            <stop stop-color="#BD0816" offset="0%"></stop>
            <stop stop-color="#FF5252" offset="100%"></stop>
        </linearGradient>
    </defs>
    <g id="Icon-Architecture/64/Arch_Amazon-GuardDuty_64" stroke="none" stroke-width="1" fill="none" fill-rule="evenodd">
        <g id="Icon-Architecture-BG/64/Security-Identity-Compliance" fill="url(#linearGradient-1)">
            <rect id="Rectangle" x="0" y="0" width="80" height="80"></rect>
        </g>
        <path d="M47,42.8145503 C46.979,44.6285827 46.462,50.3156842 41,50.9376953 L41,29.0363042 L47,31.5923499 L47,42.8145503 Z M33,42.7655494 L33,31.5923499 L39,29.0363042 L39,50.9376953 C33.537,50.3106841 33.021,44.5825818 33,42.7655494 L33,42.7655494 Z M39.608,26.6032608 L31.608,30.0113216 C31.239,30.1683244 31,30.5303309 31,30.9313381 L31,42.7765496 C31.054,47.4926338 33.443,53.0007322 40,53.0007322 C46.556,53.0007322 48.945,47.5256344 49,42.8265505 L49,30.9313381 C49,30.5303309 48.761,30.1683244 48.392,30.0113216 L40.392,26.6032608 C40.142,26.4972589 39.858,26.4972589 39.608,26.6032608 L39.608,26.6032608 Z M51,42.8245504 C50.999,43.3215593 50.843,55.0007679 40,55.0007679 C29.157,55.0007679 29.001,43.2855587 29,42.7875498 L29,28.9493027 L40,24.262219 L51,28.9493027 L51,42.8245504 Z M52.392,27.3682744 L40.392,22.2551831 C40.142,22.1481812 39.858,22.1481812 39.608,22.2551831 L27.608,27.3682744 C27.239,27.5252772 27,27.8872837 27,28.2882909 L27,42.7875498 C27,42.9295523 27.148,57.0008036 40,57.0008036 C52.852,57.0008036 53,42.967553 53,42.8265505 L53,28.2882909 C53,27.8872837 52.761,27.5252772 52.392,27.3682744 L52.392,27.3682744 Z M66,44.3075769 L62.577,44.1115734 C62.119,44.0845729 61.653,44.4125788 61.545,44.8905873 C60.994,47.334631 60.035,49.6506723 58.693,51.7777103 C58.433,52.1917177 58.509,52.7327274 58.873,53.0577332 L61.431,55.3397739 L55.339,61.4308827 L53.064,58.8808372 C52.737,58.5148306 52.196,58.4408293 51.784,58.701834 C49.661,60.0438579 47.341,61.0038751 44.89,61.557885 C44.413,61.6658869 44.084,62.1028947 44.112,62.5909034 L44.308,65.9999643 L35.692,65.9999643 L35.888,62.5879034 C35.916,62.0998946 35.587,61.6628868 35.11,61.5548849 C32.667,61.0028751 30.349,60.0408579 28.22,58.6968339 C27.807,58.4368292 27.265,58.5098305 26.939,58.8768371 L24.661,61.4308827 L18.569,55.3397739 L21.123,53.0627333 C21.487,52.7367274 21.563,52.1957178 21.303,51.7827104 C19.962,49.6576725 19.003,47.338631 18.452,44.8915873 C18.345,44.4135788 17.896,44.088573 17.42,44.1115734 L14,44.3075769 L14,35.6924231 L17.428,35.8874266 C17.889,35.9034268 18.351,35.5874212 18.46,35.1104127 C19.013,32.6703691 19.975,30.3563278 21.316,28.2312898 C21.577,27.8182825 21.501,27.2762728 21.137,26.951267 L18.569,24.6612261 L24.661,18.5691173 L26.95,21.1341631 C27.275,21.5001696 27.817,21.574171 28.229,21.3141663 C30.352,19.9761424 32.666,19.0181253 35.109,18.4671155 C35.587,18.3591136 35.916,17.9221058 35.888,17.4350971 L35.692,14.0000357 L44.308,14.0000357 L44.112,17.4370971 C44.084,17.9251058 44.413,18.3611136 44.89,18.4691155 C47.331,19.0221254 49.645,19.9811425 51.766,21.3191664 C52.176,21.5791711 52.72,21.5041697 53.045,21.1391632 L55.339,18.5691173 L61.431,24.6612261 L58.867,26.9472669 C58.503,27.2722727 58.427,27.8142824 58.688,28.2272898 C60.028,30.3493277 60.988,32.664369 61.542,35.1094127 C61.649,35.5874212 62.119,35.9034268 62.574,35.8874266 L66,35.6924231 L66,44.3075769 Z M67.687,33.9063912 C67.487,33.7183878 67.214,33.618386 66.943,33.6353863 L63.291,33.8433901 C62.739,31.7523527 61.911,29.754317 60.82,27.8852837 L63.553,25.4482401 C63.758,25.2652369 63.879,25.0062323 63.887,24.7312273 C63.895,24.4562224 63.788,24.1892177 63.594,23.9952142 L56.005,16.4060787 C55.811,16.2110752 55.532,16.1070733 55.27,16.1140735 C54.994,16.1220736 54.735,16.2420758 54.552,16.4470794 L52.106,19.1871283 C50.239,18.0981089 48.244,17.2710941 46.156,16.7200843 L46.364,13.0560189 C46.38,12.782014 46.282,12.5130092 46.093,12.3130056 C45.904,12.113002 45.642,12 45.366,12 L34.634,12 C34.358,12 34.096,12.113002 33.907,12.3130056 C33.718,12.5130092 33.62,12.782014 33.636,13.0560189 L33.844,16.7170842 C31.755,17.2670941 29.758,18.0941088 27.889,19.1821283 L25.448,16.4470794 C25.265,16.2420758 25.006,16.1220736 24.73,16.1140735 C24.472,16.1090734 24.189,16.2110752 23.995,16.4060787 L16.406,23.9952142 C16.212,24.1892177 16.105,24.4562224 16.113,24.7312273 C16.121,25.0062323 16.242,25.2652369 16.447,25.4482401 L19.184,27.8902838 C18.092,29.7603171 17.263,31.7563528 16.712,33.8433901 L13.057,33.6353863 C12.785,33.617386 12.513,33.7183878 12.313,33.9063912 C12.113,34.0953946 12,34.3583993 12,34.6334042 L12,45.3655958 C12,45.6406007 12.113,45.9036054 12.313,46.0926088 C12.513,46.2816122 12.786,46.3766139 13.057,46.3646137 L16.702,46.1566099 C17.252,48.2506473 18.079,50.2516831 19.171,52.1237165 L16.447,54.5517599 C16.242,54.7347631 16.121,54.9947678 16.113,55.2697727 C16.105,55.5447776 16.212,55.8107823 16.406,56.0047858 L23.995,63.5939213 C24.189,63.7889248 24.469,63.8969267 24.73,63.8859265 C25.006,63.8779264 25.266,63.7579242 25.448,63.5519206 L27.878,60.8288719 C29.752,61.9228915 31.753,62.7529063 33.844,63.3039161 L33.636,66.9429811 C33.62,67.217986 33.718,67.4859908 33.907,67.6869944 C34.096,67.886998 34.358,68 34.634,68 L45.366,68 C45.642,68 45.904,67.886998 46.093,67.6869944 C46.282,67.4859908 46.38,67.216986 46.364,66.9429811 L46.156,63.3069162 C48.253,62.7549063 50.255,61.9258915 52.126,60.833872 L54.552,63.5519206 C54.734,63.7579242 54.994,63.8779264 55.27,63.8859265 C55.535,63.8989268 55.811,63.7889248 56.005,63.5939213 L63.594,56.0047858 C63.788,55.8107823 63.895,55.5447776 63.887,55.2697727 C63.879,54.9947678 63.758,54.7347631 63.553,54.5517599 L60.825,52.1187164 C61.917,50.246683 62.745,48.2466473 63.295,46.1566099 L66.943,46.3646137 C67.213,46.3756139 67.487,46.2816122 67.687,46.0926088 C67.887,45.9036054 68,45.6406007 68,45.3655958 L68,34.6334042 C68,34.3583993 67.887,34.0953946 67.687,33.9063912 L67.687,33.9063912 Z" id="Amazon-GuardDuty_Icon_64_Squid" fill="#FFFFFF"></path>
    </g>
</svg>

<svg xmlns="http://www.w3.org/2000/svg" width="80" height="80"><defs><linearGradient id="a" x1="0%" x2="100%" y1="100%" y2="0%"><stop offset="0%" stop-color="#BD0816"/><stop offset="100%" stop-color="#FF5252"/></linearGradient></defs><g fill="none" fill-rule="evenodd"><path fill="url(#a)" d="M0 0h80v80H0z"/><path fill="#FFF" d="M47 42.815c-.021 1.814-.538 7.5-6 8.123V29.036l6 2.556v11.223Zm-14-.05V31.593l6-2.556v21.902c-5.463-.627-5.979-6.355-6-8.172Zm6.608-16.162-8 3.408a1 1 0 0 0-.608.92v11.846C31.054 47.493 33.443 53 40 53c6.556 0 8.945-5.475 9-10.174V30.93a1 1 0 0 0-.608-.92l-8-3.408a1.006 1.006 0 0 0-.784 0ZM51 42.825C50.999 43.322 50.843 55 40 55S29.001 43.286 29 42.788V28.949l11-4.687 11 4.687v13.876Zm1.392-15.457-12-5.113a.998.998 0 0 0-.784 0l-12 5.113a1 1 0 0 0-.608.92v14.5C27 42.93 27.148 57 40 57s13-14.033 13-14.174V28.288a1 1 0 0 0-.608-.92ZM66 44.308l-3.423-.196a1.023 1.023 0 0 0-1.032.779 21.897 21.897 0 0 1-2.852 6.887c-.26.414-.184.955.18 1.28l2.558 2.282-6.092 6.09-2.275-2.55a.999.999 0 0 0-1.28-.178 21.906 21.906 0 0 1-6.894 2.856 1 1 0 0 0-.778 1.033L44.308 66h-8.616l.196-3.412a1 1 0 0 0-.778-1.033 21.931 21.931 0 0 1-6.89-2.858 1 1 0 0 0-1.281.18l-2.278 2.554-6.092-6.091 2.554-2.277c.364-.326.44-.867.18-1.28a21.891 21.891 0 0 1-2.851-6.891 1.013 1.013 0 0 0-1.032-.78l-3.42.196v-8.616l3.428.195c.461.016.923-.3 1.032-.777a21.953 21.953 0 0 1 2.856-6.879 1 1 0 0 0-.179-1.28l-2.568-2.29 6.092-6.092 2.289 2.565a.998.998 0 0 0 1.279.18 21.912 21.912 0 0 1 6.88-2.847 1 1 0 0 0 .779-1.032L35.692 14h8.616l-.196 3.437a1 1 0 0 0 .778 1.032 21.944 21.944 0 0 1 6.876 2.85 1 1 0 0 0 1.279-.18l2.294-2.57 6.092 6.092-2.564 2.286a1 1 0 0 0-.179 1.28 21.933 21.933 0 0 1 2.854 6.882c.107.478.577.794 1.032.778L66 35.692v8.616Zm1.687-10.402a1.004 1.004 0 0 0-.744-.27l-3.652.207a23.9 23.9 0 0 0-2.471-5.958l2.733-2.437a1 1 0 0 0 .041-1.453l-7.589-7.589a1 1 0 0 0-1.453.041l-2.446 2.74a23.886 23.886 0 0 0-5.95-2.467l.208-3.664A.998.998 0 0 0 45.366 12H34.634a.998.998 0 0 0-.998 1.056l.208 3.661a23.93 23.93 0 0 0-5.955 2.465l-2.441-2.735a1 1 0 0 0-1.453-.04l-7.589 7.588a1.002 1.002 0 0 0 .041 1.453l2.737 2.442a23.872 23.872 0 0 0-2.472 5.953l-3.655-.208a.999.999 0 0 0-1.057.998v10.733a1 1 0 0 0 1.057.999l3.645-.208a23.843 23.843 0 0 0 2.469 5.967l-2.724 2.428a1.002 1.002 0 0 0-.041 1.453l7.589 7.589c.194.195.474.303.735.292a.995.995 0 0 0 .718-.334l2.43-2.723a23.893 23.893 0 0 0 5.966 2.475l-.208 3.639A1 1 0 0 0 34.634 68h10.732a.998.998 0 0 0 .998-1.057l-.208-3.636a23.887 23.887 0 0 0 5.97-2.473l2.426 2.718a.995.995 0 0 0 .718.334.99.99 0 0 0 .735-.292l7.589-7.59a1 1 0 0 0-.041-1.452l-2.728-2.433a23.874 23.874 0 0 0 2.47-5.962l3.648.208c.27.01.544-.083.744-.272a1 1 0 0 0 .313-.727V34.633a1 1 0 0 0-.313-.727Z"/></g></svg>
